astro/public/img/footer/twitter.svg

<svg xmlns="http://www.w3.org/2000/svg" width="40" height="32.002"><path fill="#94A3B8" d="M40 0c-1.56.926-4.69 2.188-6.53 2.552-.054.014-.098.032-.15.046A8.968 8.968 0 0 0 27 0a9 9 0 0 0-9 9c0 .262-.022.744 0 1-6.706 0-11.81-3.512-15.47-8-.398 1-.572 2.58-.572 4.064 0 2.802 2.19 5.554 5.6 7.26a8.198 8.198 0 0 1-2.04.278c-1.162 0-2.392-.306-3.518-1.234v.102c0 3.916 4.156 6.582 7.852 7.324-.75.442-2.262.486-3 .486-.52 0-2.36-.238-2.852-.33 1.028 3.21 4.736 5.014 8.27 5.078C9.506 27.196 7.588 28 1.928 28H0c3.576 2.292 8.13 4.002 12.694 4.002C27.554 32.002 36 20.676 36 10c0-.172-.004-.532-.01-.894 0-.036.01-.07.01-.106 0-.054-.016-.106-.016-.16a36.768 36.768 0 0 0-.018-.658A16.434 16.434 0 0 0 40 4a16.14 16.14 0 0 1-4.64 1.272c1.668-1 4.038-3.384 4.64-5.272Z"/></svg>

<?xml version="1.0" encoding="UTF-8"?>
<svg width="40px" height="32.002px" viewBox="0 0 40 32.002" version="1.1" xmlns="http://www.w3.org/2000/svg" xmlns:xlink="http://www.w3.org/1999/xlink">
    <title>icons8-twitter</title>
    <g id="Page-1" stroke="none" stroke-width="1" fill="none" fill-rule="evenodd">
        <g id="icons8-twitter" fill="#94A3B8" fill-rule="nonzero">
            <path d="M40,-8.8817842e-16 C38.44,0.926 35.31,2.188 33.47,2.552 C33.416,2.566 33.372,2.584 33.32,2.598 C31.694,0.994 29.466,-8.8817842e-16 27,-8.8817842e-16 C22.03,-8.8817842e-16 18,4.03 18,9 C18,9.262 17.978,9.744 18,10 C11.294,10 6.19,6.488 2.53,2 C2.132,3 1.958,4.58 1.958,6.064 C1.958,8.866 4.148,11.618 7.558,13.324 C6.93,13.486 6.238,13.602 5.518,13.602 C4.356,13.602 3.126,13.296 2,12.368 C2,12.402 2,12.434 2,12.47 C2,16.386 6.156,19.052 9.852,19.794 C9.102,20.236 7.59,20.28 6.852,20.28 C6.332,20.28 4.492,20.042 4,19.95 C5.028,23.16 8.736,24.964 12.27,25.028 C9.506,27.196 7.588,28 1.928,28 L0,28 C3.576,30.292 8.13,32.002 12.694,32.002 C27.554,32.002 36,20.676 36,10 C36,9.828 35.996,9.468 35.99,9.106 C35.99,9.07 36,9.036 36,9 C36,8.946 35.984,8.894 35.984,8.84 C35.978,8.568 35.972,8.314 35.966,8.182 C37.546,7.042 38.916,5.62 40,4 C38.55,4.644 36.994,5.076 35.36,5.272 C37.028,4.272 39.398,1.888 40,-8.8817842e-16 Z" id="Path"></path>
        </g>
    </g>
</svg>
